X:182
T: Siji hua kai
N: C0304
O: China, Shandong, Xiajin
S: III, 335]
N: Vor- und Zwischenspiele; Verzierungen: Glissando;
N: Sonderzeichen: v.d. Sprache abgeleitetes Verlassen der Tonhoehe
N: 2 WEITERE TITEL AUS ANDERER PROVINZ VORHANDEN. !
N: Pinyin-Text der ersten Strophe vorhanden! Zuordnung richtig? +++
R: Xiaodiao, Siji huakai diao. Xin minge]
M: 2/4
L: 1/16
K: D
A2F2A2d2 | F2EFD4 | d2c2BcBF | A8
A2ABd2e2 | B2A2A2F2 | E2DDE2A2 | BAFED4
A2A2A2FA | decBA4 | ABAFEDEF | A8
F3AF2A2 | d2d2d2F2 | EFEDE2A2 | BAFED4
F3AF2A2 | decBA4 | FzFzEDEF | A8
E2DDE2A2 | AEFED4

